packages/foundations/assets/icons/functional/images/logos/s_bahn_24.svg

<svg width="24" height="24" viewBox="0 0 24 24" fill="none" xmlns="http://www.w3.org/2000/svg">
<g clip-path="url(#clip0_185_1713)">
<path fill-rule="evenodd" clip-rule="evenodd" d="M12.0002 2C17.5229 2 22 6.47726 22 12.0002C22 17.5228 17.5228 22 12.0002 22C6.47693 22 2 17.5231 2 12.0002C2 6.47701 6.47684 2 12.0002 2ZM12.0002 4C7.58143 4 4 7.58156 4 12.0002C4 16.4185 7.5815 20 12.0002 20C16.4183 20 20 16.4183 20 12.0002C20 7.58181 16.4183 4 12.0002 4ZM11.6211 6.5C13.1479 6.5 14.5158 7.01844 15.6028 7.89111V9.72412C14.6622 8.67454 13.2457 7.75188 11.5843 7.75188C10.644 7.75188 10.1064 8.27032 10.1064 8.87722C10.1064 9.78168 10.8771 10.1406 11.8724 10.4134C12.7536 10.6547 12.7536 10.6239 13.5613 10.8425C14.9594 11.2441 16.25 11.9089 16.25 13.8324C16.25 15.5274 14.6622 17.5 11.9877 17.5C10.4976 17.5 8.77535 16.8043 7.83545 15.932V13.7317C8.72668 15.0593 10.3509 16.0831 11.9877 16.0831C12.9893 16.0831 13.7951 15.4897 13.7951 14.857C13.7951 14.0945 13.1794 13.726 12.3409 13.4438C11.5493 13.1951 10.9687 13.0679 10.292 12.8404C8.95683 12.3904 7.75 11.6669 7.75 9.82527C7.75 7.66304 9.78918 6.5 11.6211 6.5Z" fill="#1A1C1F"/>
</g>
<defs>
<clipPath id="clip0_185_1713">
<rect width="24" height="24" fill="white"/>
</clipPath>
</defs>
</svg>

<svg xmlns="http://www.w3.org/2000/svg" width="24" height="24" fill="none"><g clip-path="url(#a)"><path fill="#1A1C1F" fill-rule="evenodd" d="M12 2c5.523 0 10 4.477 10 10s-4.477 10-10 10S2 17.523 2 12 6.477 2 12 2m0 2a8 8 0 1 0 0 16 8 8 0 0 0 0-16m-.379 2.5c1.527 0 2.895.518 3.982 1.391v1.833c-.94-1.05-2.357-1.972-4.019-1.972-.94 0-1.478.518-1.478 1.125 0 .905.771 1.264 1.766 1.536.882.242.882.21 1.69.43 1.397.401 2.688 1.066 2.688 2.99 0 1.694-1.588 3.667-4.262 3.667-1.49 0-3.213-.696-4.153-1.568v-2.2c.892 1.327 2.516 2.351 4.153 2.351 1.001 0 1.807-.593 1.807-1.226 0-.762-.616-1.131-1.454-1.413-.792-.249-1.372-.376-2.049-.604-1.335-.45-2.542-1.173-2.542-3.015 0-2.162 2.04-3.325 3.871-3.325" clip-rule="evenodd"/></g><defs><clipPath id="a"><path fill="#fff" d="M0 0h24v24H0z"/></clipPath></defs></svg>
